img/right-left-solid.svg

<svg xmlns="http://www.w3.org/2000/svg" viewBox="0 0 512 512"><!--!Font Awesome Free 6.6.0 by @fontawesome - https://fontawesome.com License - https://fontawesome.com/license/free Copyright 2024 Fonticons, Inc.--><path d="M32 96l320 0 0-64c0-12.9 7.8-24.6 19.8-29.6s25.7-2.2 34.9 6.9l96 96c6 6 9.4 14.1 9.4 22.6s-3.4 16.6-9.4 22.6l-96 96c-9.2 9.2-22.9 11.9-34.9 6.9s-19.8-16.6-19.8-29.6l0-64L32 160c-17.7 0-32-14.3-32-32s14.3-32 32-32zM480 352c17.7 0 32 14.3 32 32s-14.3 32-32 32l-320 0 0 64c0 12.9-7.8 24.6-19.8 29.6s-25.7 2.2-34.9-6.9l-96-96c-6-6-9.4-14.1-9.4-22.6s3.4-16.6 9.4-22.6l96-96c9.2-9.2 22.9-11.9 34.9-6.9s19.8 16.6 19.8 29.6l0 64 320 0z"/></svg>

<svg width="512" height="512" viewBox="0 0 512 512" fill="none" xmlns="http://www.w3.org/2000/svg">
<g clip-path="url(#clip0_27_2)">
<path d="M32 96H352V32C352 19.1 359.8 7.40001 371.8 2.40001C383.8 -2.59999 397.5 0.200006 406.7 9.30001L502.7 105.3C508.7 111.3 512.1 119.4 512.1 127.9C512.1 136.4 508.7 144.5 502.7 150.5L406.7 246.5C397.5 255.7 383.8 258.4 371.8 253.4C359.8 248.4 352 236.8 352 223.8V159.8L32 160C14.3 160 2.44156e-05 145.7 2.44156e-05 128C2.44156e-05 110.3 14.3 96 32 96ZM480 352C497.7 352 512 366.3 512 384C512 401.7 497.7 416 480 416H160V480C160 492.9 152.2 504.6 140.2 509.6C128.2 514.6 114.5 511.8 105.3 502.7L9.30002 406.7C3.30002 400.7 -0.0999756 392.6 -0.0999756 384.1C-0.0999756 375.6 3.30002 367.5 9.30002 361.5L105.3 265.5C114.5 256.3 128.2 253.6 140.2 258.6C152.2 263.6 160 275.2 160 288.2V352.2H480V352Z" fill="#534F4F"/>
</g>
<defs>
<clipPath id="clip0_27_2">
<rect width="512" height="512" fill="white"/>
</clipPath>
</defs>
</svg>
